X:1
T:Title
%%score { ( 1 3 ) | ( 2 4 ) }
L:1/8
M:4/4
K:D
V:1 treble nm="Grand Piano"
V:3 treble 
V:2 bass 
V:4 bass 
V:1
 z4 z2[Q:1/4=100] [Ad]>[Ae] | [df]2 [df]>[ce] [dg]2 [Af]>[Ae] | [Ad]2 [Ad]>[Ac] [Be]2 [Bd]>[GB] | %3
 A>A [Ad]2 [^Gd]2 [Ac]>[Bd] | %4
[M:19/16] [ce]/-[ce]/-[ce]/-[ce]/-[ce]/-[ce]/-[ce]/-[ce]/-[ce]/-[ce]/-[ce]/-[ce]-<[ce] z/ z/ z | %5
[M:4/4] [df]2 [df]>[ce] [dg]2 [Af]>[Ae] | [Ad]2 [Ad]>[Ac] [Be]2 [Bd][GB] | %7
 [FA]2 [Ad]>[Ad] [Ac]>[Ac] [Ae]2 |[M:3/4] [Ad]6 |[M:1/4] [Bf]2 | %10
[M:4/4] [Bf]2 [Bf]>[Bf] [Bf]2 [Bd]>B | [Bf]6 [Bf]2 | z4 .e2 z2 | %13
[M:9/8][K:bass] [Ac]6- [Ac][K:treble] z z |[M:4/4] [df]2 [df]>[ce] [dg] [df]2 [ce] | %15
 [Bd]2 [Bd]>[Ac] [ce][Bd] z [GB] | A2 [Ad]>[Ad] [Ac]>[Ac] [ce]2 |[M:7/8] z z/ d/-d- d- d3 |] %18
V:2
 z4 z2 [D,F,]>[D,G,] | [D,A,]2 [D,A,]>[D,G,] [D,B,]2 [D,A,]>[D,G,] | %2
 [D,F,]2 [F,,D,]>[F,,D,] [G,,D,]2 [G,,G,]>[G,,G,] | [D,F,]2 [D,F,]2 E,2 E,>[E,^G,] | %4
[M:19/16] A,-<A, z/ z/ z/ z/ z/ z/ z/ z/ z/ z [D,F,]>[D,G,] | %5
[M:4/4] [D,A,]2 [D,A,]>[D,G,] [D,B,]2 [D,A,]>[D,G,] | [D,F,]2 [F,,D,]>[F,,D,] [G,,D,]2 [G,,G,]2 | %7
 [A,,F,]2 [A,,F,]>[A,,F,] [A,,E,]>[A,,E,] [A,,G,]2 |[M:3/4] [D,F,]6 |[M:1/4] [B,,D,]2 | %10
[M:4/4] [B,,D,]2 [B,,D,]>[B,,D,] [B,,D,]2 [B,,D,]>[B,,D,] | D,>F, D,C, B,,2 [B,,D,]2 | %12
 E,2 [E,A,]>[E,A,] [E,^G,]2 [E,G,]>[E,G,] |[M:9/8] A,6- A,[D,F,]>[D,G,] | %14
[M:4/4] [D,A,]2 [D,A,]>[D,G,] [D,B,] [D,A,]2 [D,G,] | [G,,G,]2 [G,,G,]>[G,,G,] [G,,G,]2 z [G,,G,] | %16
 [A,,F,]2 [A,,F,]>[A,,F,] [A,,E,]>[A,,E,] [A,,G,]2 |[M:7/8] F,>F, G,2 F,3 |] %18
V:3
 x8 | x8 | x8 | x8 |[M:19/16] z/ z/ z ^G,=G,/-G,/-G,/-G,/-G,/-G,-<G,[Ad]>[Ae] |[M:4/4] x8 | x8 | %7
 x8 |[M:3/4] x6 |[M:1/4] x2 |[M:4/4] x8 | x8 | [ce]2 [ce]>[ce] B-[B^d] [B=d]>B | %13
[M:9/8][K:bass] z z/ A,,/C, E, G,2- G,[K:treble][Ad]>[Ae] |[M:4/4] x8 | x8 | x8 | %17
[M:7/8] d2 B2 A3 |] %18
V:4
 x8 | x8 | x8 | x8 | %4
[M:19/16] A,,/-A,,/-A,,/-A,,/-A,,/-A,,/-A,,/-A,,/-A,,/-A,,/-A,,/-A,,-<A,, z/ z/ z |[M:4/4] x8 | %6
 x8 | x8 |[M:3/4] x6 |[M:1/4] x2 |[M:4/4] x8 | B,,4 z4 | x8 |[M:9/8] .A,,3 z3 z3 |[M:4/4] x8 | x8 | %16
 x8 |[M:7/8] D,-D,-D,- D,- D,3 |] %18

